public/avatar/item1/56.svg

<svg xmlns:xlink="http://www.w3.org/1999/xlink" height="65.4" width="80.15" xmlns="http://www.w3.org/2000/svg"><use height="18.2" transform="translate(13.7 32.05)" width="30.1" xlink:href="#a"/><defs><g id="a"><path d="M.35 31.15q3.3 1.65 11.35 4.05-3.6 1.05-4.5.75-4.7-.15-10.7-3.5-6-3.3-12.4-11.6l.25-.55Q-3 29.45.35 31.15" fill-rule="evenodd" transform="translate(17.9 -18.25)"/><path d="M-15.65 18.95q1.25.6 3.7 2.35 2.8 2.05 3.45 3.15.75 1.3-.35 2.6-1.15 1.35-2.5.6l-3.4-2.8q-2-2.1-2.25-2.95-.3-1 .1-2.1.4-1.2 1.25-.85" fill="#ff8a1c" fill-rule="evenodd" transform="translate(17.9 -18.25)"/><path d="M-17.65 20.2q1.4.75 3.75 3.1 3.6 2.35 4.7 4.6-1.65.85-2.9-.3l-2-2.4-2.4-1.95q-1.5-1.4-.9-2.7l-.25-.35" fill="#b85d0b" fill-rule="evenodd" transform="translate(17.9 -18.25)"/><path d="M-9.55 27.8q2.8 2.9 6.05 4.65 2.35 1.3 6.15 2.4 3.65 1.1 5.3 1.1 2.75 0 3.75-.75l-1.2-.3q-9.25-3-12.1-4.75l-5.85-3.9" fill="none" stroke="#000" stroke-linecap="round" stroke-linejoin="round" transform="translate(17.9 -18.25)"/><path d="M-8.05 25.8q-.05-1.25-1.35-2.5-1.35-1.25-5.85-4.35-1.35-.5-1.75.35-.75 1.7-.1 2.9l3.45 3.35L-11 27.8l1 .1" fill="none" stroke="#803412" stroke-linecap="round" stroke-linejoin="round" transform="translate(17.9 -18.25)"/><path d="m-8.05 25.8.25 1.9-1.75.1-2.6-2.6.75-1.4 3.35 2" fill-rule="evenodd" transform="translate(17.9 -18.25)"/></g></defs></svg>

<?xml version="1.0" encoding="UTF-8" standalone="no"?>
<svg xmlns:xlink="http://www.w3.org/1999/xlink" height="65.4px" width="80.15px" xmlns="http://www.w3.org/2000/svg">
  <g transform="matrix(1.0, 0.0, 0.0, 1.0, 31.6, 13.8)">
    <use height="18.2" transform="matrix(1.0, 0.0, 0.0, 1.0, -17.9, 18.25)" width="30.1" xlink:href="#shape0"/>
  </g>
  <defs>
    <g id="shape0" transform="matrix(1.0, 0.0, 0.0, 1.0, 17.9, -18.25)">
      <path d="M0.35 31.15 Q3.65 32.8 11.7 35.2 8.1 36.25 7.2 35.95 2.5 35.8 -3.5 32.45 -9.5 29.15 -15.9 20.85 L-15.65 20.3 Q-3.0 29.45 0.35 31.15" fill="#000000" fill-rule="evenodd" stroke="none"/>
      <path d="M-15.65 18.95 Q-14.4 19.55 -11.95 21.3 -9.15 23.35 -8.5 24.45 -7.75 25.75 -8.85 27.05 -10.0 28.4 -11.35 27.65 L-14.75 24.85 Q-16.75 22.75 -17.0 21.9 -17.3 20.9 -16.9 19.8 -16.5 18.6 -15.65 18.95" fill="#ff8a1c" fill-rule="evenodd" stroke="none"/>
      <path d="M-17.65 20.2 Q-16.25 20.95 -13.9 23.3 -10.3 25.65 -9.2 27.9 -10.85 28.75 -12.1 27.6 L-14.1 25.2 -16.5 23.25 Q-18.0 21.85 -17.4 20.55 L-17.65 20.2" fill="#b85d0b" fill-rule="evenodd" stroke="none"/>
      <path d="M-9.55 27.8 Q-6.75 30.7 -3.5 32.45 -1.15 33.75 2.65 34.85 6.3 35.95 7.95 35.95 10.7 35.95 11.7 35.2 L10.5 34.9 Q1.25 31.9 -1.6 30.15 L-7.45 26.25" fill="none" stroke="#000000" stroke-linecap="round" stroke-linejoin="round" stroke-width="1.0"/>
      <path d="M-8.05 25.8 Q-8.1 24.55 -9.4 23.3 -10.75 22.05 -15.25 18.95 -16.6 18.45 -17.0 19.3 -17.75 21.0 -17.1 22.2 L-13.65 25.55 -11.0 27.8 -10.0 27.9" fill="none" stroke="#803412" stroke-linecap="round" stroke-linejoin="round" stroke-width="1.0"/>
      <path d="M-8.05 25.8 L-7.8 27.7 -9.55 27.8 -12.15 25.2 -11.4 23.8 -8.05 25.8" fill="#000000" fill-rule="evenodd" stroke="none"/>
    </g>
  </defs>
</svg>
